assets/icons/24px/stroke/calendar-24px.svg

<svg width="24" height="24" viewBox="0 0 24 24" fill="none" xmlns="http://www.w3.org/2000/svg">
<path fill-rule="evenodd" clip-rule="evenodd" d="M6.6 2C7.15229 2 7.6 2.44772 7.6 3V3.8H16.4V3C16.4 2.44772 16.8477 2 17.4 2C17.9523 2 18.4 2.44772 18.4 3V3.81322C18.7388 3.82432 19.0489 3.8447 19.3274 3.88213C19.9831 3.97025 20.6116 4.16895 21.1213 4.67868C21.631 5.18834 21.8297 5.81669 21.9179 6.47221C22.0001 7.08387 22.0001 7.8477 22 8.7342V17.0658C22.0001 17.9523 22.0001 18.7161 21.9179 19.3278C21.8297 19.9833 21.631 20.6117 21.1213 21.1213C20.6117 21.631 19.9833 21.8297 19.3278 21.9179C18.7161 22.0001 17.9523 22.0001 17.0658 22H6.9342C6.0477 22.0001 5.28388 22.0001 4.67221 21.9179C4.0167 21.8297 3.38835 21.631 2.87868 21.1213C2.36902 20.6117 2.17028 19.9833 2.08215 19.3278C1.99991 18.7161 1.99995 17.9523 2 17.0658L2 8.8C2 8.77798 2 8.75604 2 8.73417C1.99995 7.84768 1.99991 7.08387 2.08215 6.47221C2.17028 5.81669 2.36902 5.18834 2.87868 4.67868C3.38841 4.16895 4.01695 3.97025 4.67259 3.88213C4.9511 3.8447 5.26117 3.82432 5.6 3.81322V3C5.6 2.44772 6.04772 2 6.6 2ZM5.6 5.81426C5.34408 5.82357 5.12778 5.83894 4.93898 5.86431C4.50493 5.92265 4.36895 6.01684 4.2929 6.09289C4.21677 6.16902 4.12263 6.30497 4.06431 6.7387C4.00213 7.20121 4 7.82892 4 8.8V9.2H20V8.8C20 7.82892 19.9979 7.20121 19.9357 6.7387C19.8774 6.30496 19.7832 6.16902 19.7071 6.09289C19.6311 6.01684 19.4951 5.92265 19.061 5.86431C18.8722 5.83894 18.6559 5.82357 18.4 5.81426V6.6C18.4 7.15228 17.9523 7.6 17.4 7.6C16.8477 7.6 16.4 7.15228 16.4 6.6V5.8H7.6V6.6C7.6 7.15228 7.15229 7.6 6.6 7.6C6.04772 7.6 5.6 7.15228 5.6 6.6V5.81426ZM20 11.2H4V17C4 17.9711 4.00213 18.5988 4.06431 19.0613C4.12263 19.495 4.21677 19.631 4.2929 19.7071C4.36902 19.7832 4.50497 19.8774 4.93871 19.9357C5.40121 19.9979 6.02893 20 7 20H17C17.9711 20 18.5988 19.9979 19.0613 19.9357C19.495 19.8774 19.631 19.7832 19.7071 19.7071C19.7832 19.631 19.8774 19.495 19.9357 19.0613C19.9979 18.5988 20 17.9711 20 17V11.2Z" fill="white"/>
</svg>

<svg width="24" height="24" fill="none" xmlns="http://www.w3.org/2000/svg"><path fill-rule="evenodd" clip-rule="evenodd" d="M6.6 2a1 1 0 0 1 1 1v.8h8.8V3a1 1 0 1 1 2 0v.813c.339.011.649.032.927.07.656.087 1.285.286 1.794.796.51.51.709 1.138.797 1.793C22 7.084 22 7.848 22 8.734v8.332c0 .886 0 1.65-.082 2.262-.088.655-.287 1.284-.797 1.793-.51.51-1.138.709-1.793.797-.612.082-1.376.082-2.262.082H6.934c-.886 0-1.65 0-2.262-.082-.655-.088-1.284-.287-1.793-.797-.51-.51-.709-1.138-.797-1.793C2 18.716 2 17.952 2 17.066V8.8v-.066c0-.886 0-1.65.082-2.262.088-.655.287-1.284.797-1.793.51-.51 1.138-.709 1.794-.797.278-.037.588-.058.927-.069V3a1 1 0 0 1 1-1zm-1 3.814c-.256.01-.472.025-.661.05-.434.059-.57.153-.646.229-.076.076-.17.212-.229.646C4.002 7.2 4 7.829 4 8.8v.4h16v-.4c0-.971-.002-1.599-.064-2.061-.059-.434-.153-.57-.229-.646-.076-.076-.212-.17-.646-.229a6.914 6.914 0 0 0-.661-.05V6.6a1 1 0 1 1-2 0v-.8H7.6v.8a1 1 0 1 1-2 0v-.786zM20 11.2H4V17c0 .971.002 1.599.064 2.061.059.434.153.57.229.646.076.076.212.17.646.229C5.4 19.998 6.029 20 7 20h10c.971 0 1.599-.002 2.061-.064.434-.059.57-.153.646-.229.076-.076.17-.212.229-.646.062-.462.064-1.09.064-2.061v-5.8z" fill="#fff"/></svg>
